assets/imgs/logo-small.svg

<svg fill="none" height="38" viewBox="0 0 31 38" width="31" xmlns="http://www.w3.org/2000/svg"><path clip-rule="evenodd" d="m14.5333.821574c0-.453743.4675-.82157399 1.0442-.82157399s1.0442.36783199 1.0442.82157599v4.107884c0 .45374-.4675.82157-1.0442.82157s-1.0442-.36783-1.0442-.82158zm-10.38717 14.714926c2.09437 0 3.79219-1.684 3.79219-3.7613 0-2.07737-1.69782-3.76137-3.79219-3.76137s-3.792187 1.684-3.792187 3.76137c0 2.0773 1.697817 3.7613 3.792187 3.7613zm15.27477-4.658c.4195 1.973-.9543 3.9309-3.0685 4.3731-1.2767.2671-2.6986.7682-3.2194 1.9671l-.1059.2438c-.5361 1.2341.0265 2.6652.554 3.9087.0976.2302.1747.4731.2287.7267.4517 2.1248-.8959 4.2057-3.0101 4.6479-2.11418.4422-4.19428-.9217-4.64603-3.0465-.45175-2.1247.89591-4.2057 3.01008-4.6479 1.20015-.251 2.53145-.7194 3.02095-1.8465l.1668-.384c.4908-1.1297.0447-2.4256-.366-3.6188v-.0001l-.0001-.0001c-.0389-.1129-.0774-.2249-.1148-.3358-.0423-.1252-.0777-.2541-.1058-.3862-.4195-1.973.9544-3.93085 3.0685-4.37307 2.1142-.44222 4.1681.7987 4.5876 2.77167zm5.7235 11.1719c.4195 1.973-.9543 3.9309-3.0685 4.3731-1.2767.267-2.6986.7681-3.2195 1.9671l-.1058.2437c-.5361 1.2342.0265 2.6653.5539 3.9088.0977.2302.1748.473.2287.7267.4518 2.1247-.8959 4.2057-3.01 4.6479-2.1142.4422-4.1943-.9218-4.646-3.0465-.4518-2.1247.8959-4.2057 3.01-4.6479 1.2001-.251 2.5314-.7195 3.021-1.8465l.1668-.384c.4907-1.1297.0447-2.4256-.366-3.6188-.0389-.113-.0775-.2251-.1149-.336-.0423-.1253-.0777-.2541-.1058-.3862-.4195-1.973.9543-3.9309 3.0685-4.3731s4.1681.7987 4.5876 2.7717zm5.6842-10.2751c0 2.0773-1.6978 3.7614-3.7921 3.7614-2.0944 0-3.7922-1.6841-3.7922-3.7614 0-2.07731 1.6978-3.76132 3.7922-3.76132 2.0943 0 3.7921 1.68401 3.7921 3.76132z" fill="#7e27ed" fill-rule="evenodd"/></svg>

<svg width="31" height="38" viewBox="0 0 31 38" fill="none" xmlns="http://www.w3.org/2000/svg">
<path fill-rule="evenodd" clip-rule="evenodd" d="M14.5333 0.821574C14.5333 0.367831 15.0008 5.20856e-09 15.5775 5.41364e-09C16.1542 5.61872e-09 16.6217 0.367832 16.6217 0.821576L16.6217 4.92946C16.6217 5.3832 16.1542 5.75103 15.5775 5.75103C15.0008 5.75103 14.5333 5.3832 14.5333 4.92945L14.5333 0.821574ZM4.14613 15.5365C6.2405 15.5365 7.93832 13.8525 7.93832 11.7752C7.93832 9.69783 6.2405 8.01383 4.14613 8.01383C2.05176 8.01383 0.353943 9.69783 0.353943 11.7752C0.353943 13.8525 2.05176 15.5365 4.14613 15.5365ZM19.4209 10.8785C19.8404 12.8515 18.4666 14.8094 16.3524 15.2516C15.0757 15.5187 13.6538 16.0198 13.133 17.2187L13.0271 17.4625C12.491 18.6966 13.0536 20.1277 13.5811 21.3712C13.6787 21.6014 13.7558 21.8443 13.8098 22.0979C14.2615 24.2227 12.9139 26.3036 10.7997 26.7458C8.68552 27.188 6.60542 25.8241 6.15367 23.6993C5.70192 21.5746 7.04958 19.4936 9.16375 19.0514C10.3639 18.8004 11.6952 18.332 12.1847 17.2049L12.3515 16.8209C12.8423 15.6912 12.3962 14.3953 11.9855 13.2021L11.9855 13.202L11.9854 13.2019C11.9465 13.089 11.908 12.977 11.8706 12.8661C11.8283 12.7409 11.7929 12.612 11.7648 12.4799C11.3453 10.5069 12.7192 8.54905 14.8333 8.10683C16.9475 7.66461 19.0014 8.90553 19.4209 10.8785ZM25.1444 22.0504C25.5639 24.0234 24.1901 25.9813 22.0759 26.4235C20.7992 26.6905 19.3773 27.1916 18.8564 28.3906L18.7506 28.6343C18.2145 29.8685 18.7771 31.2996 19.3045 32.5431C19.4022 32.7733 19.4793 33.0161 19.5332 33.2698C19.985 35.3945 18.6373 37.4755 16.5232 37.9177C14.409 38.3599 12.3289 36.9959 11.8772 34.8712C11.4254 32.7465 12.7731 30.6655 14.8872 30.2233C16.0873 29.9723 17.4186 29.5038 17.9082 28.3768L18.075 27.9928C18.5657 26.8631 18.1197 25.5672 17.709 24.374C17.6701 24.261 17.6315 24.1489 17.5941 24.038C17.5518 23.9127 17.5164 23.7839 17.4883 23.6518C17.0688 21.6788 18.4426 19.7209 20.5568 19.2787C22.671 18.8365 24.7249 20.0774 25.1444 22.0504ZM30.8286 11.7753C30.8286 13.8526 29.1308 15.5367 27.0365 15.5367C24.9421 15.5367 23.2443 13.8526 23.2443 11.7753C23.2443 9.69799 24.9421 8.01398 27.0365 8.01398C29.1308 8.01398 30.8286 9.69799 30.8286 11.7753Z" fill="#7E27ED"/>
</svg>
